v2/src/assets/icones/icon__book.svg

<svg width="43" height="33" viewBox="0 0 43 33" fill="none" xmlns="http://www.w3.org/2000/svg">
<path d="M39.7227 0.499362C35.8085 0.721504 28.0285 1.53007 23.2257 4.47006C22.8942 4.67291 22.7064 5.03363 22.7064 5.41077V31.4014C22.7064 32.2264 23.6085 32.7478 24.3692 32.3649C29.3106 29.8778 36.457 29.1992 39.9906 29.0135C41.197 28.9499 42.1349 27.9828 42.1349 26.8235V2.69221C42.1356 1.42722 41.0384 0.425077 39.7227 0.499362ZM19.9021 4.47006C15.1 1.53007 7.32003 0.722218 3.40577 0.499362C2.09006 0.425077 0.99292 1.42722 0.99292 2.69221V26.8242C0.99292 27.9842 1.93077 28.9514 3.1372 29.0142C6.67218 29.1999 13.8221 29.8792 18.7635 32.3678C19.5221 32.7499 20.4214 32.2292 20.4214 31.4064V5.39791C20.4214 5.02005 20.2343 4.67363 19.9021 4.47006Z" fill="black"/>
</svg>

<?xml version="1.0" encoding="utf-8"?>
<!-- Generator: Adobe Illustrator 26.3.1, SVG Export Plug-In . SVG Version: 6.00 Build 0)  -->
<svg version="1.1" id="Camada_1" xmlns="http://www.w3.org/2000/svg" xmlns:xlink="http://www.w3.org/1999/xlink" x="0px" y="0px"
	 viewBox="0 0 43 33" style="enable-background:new 0 0 43 33;" xml:space="preserve">
<style type="text/css">
	.st0{fill:#391741;}
</style>
<path class="st0" d="M39.7,0.5c-3.9,0.2-11.7,1-16.5,4c-0.3,0.2-0.5,0.6-0.5,0.9v26c0,0.8,0.9,1.3,1.7,1c4.9-2.5,12.1-3.2,15.6-3.4
	c1.2-0.1,2.1-1,2.1-2.2V2.7C42.1,1.4,41,0.4,39.7,0.5z M19.9,4.5c-4.8-2.9-12.6-3.7-16.5-4C2.1,0.4,1,1.4,1,2.7v24.1
	C1,28,1.9,29,3.1,29c3.5,0.2,10.7,0.9,15.6,3.4c0.8,0.4,1.7-0.1,1.7-1v-26C20.4,5,20.2,4.7,19.9,4.5z"/>
</svg>
